public/flags/NZ.svg

<svg fill="none" height="53" viewBox="0 0 61 53" width="61" xmlns="http://www.w3.org/2000/svg" xmlns:xlink="http://www.w3.org/1999/xlink"><mask id="a" height="43" maskUnits="userSpaceOnUse" width="59" x="1" y="3"><rect fill="#fff" height="42.5" rx="4.24286" width="59" x="1" y="3"/></mask><rect fill="#fff" height="42.5" rx="4.24286" width="59" x="1" y="3"/><g mask="url(#a)"><path d="m1 3h59v42.5h-59z" fill="#0a17a7"/><path d="m1 2.29286h-1.899402l1.436963 1.24212 9.588639 8.28852v2.1477l-9.539515 6.8717-.293828.2116v.3622 1.4166 1.2816l1.084203-.6833 11.06534-6.9745h2.377l9.526 6.862c.1998.1439.4399.2214.6862.2214 1.0876 0 1.5906-1.3511.7678-2.0623l-8.6399-7.4683v-2.1478l9.2457-6.66c.369-.26579.5877-.6928.5877-1.14756v-1.05454-1.2816l-1.0842.68337-11.0653 6.97442h-2.3771l-9.64822-6.94997-.18514-.13336h-.22818z" fill="#ff2e3b" stroke="#fff" stroke-width="1.41429"/><g clip-rule="evenodd" fill-rule="evenodd"><path d="m1 10.0833v5.6667h9.8333v7.0857c0 .7811.6332 1.4143 1.4143 1.4143h2.7905c.7811 0 1.4143-.6332 1.4143-1.4143v-7.0857h9.8238c.7811 0 1.4143-.6332 1.4143-1.4143v-2.8381c0-.7811-.6332-1.4143-1.4143-1.4143h-9.8238v-7.0833h-5.6191v7.0833z" fill="#fff"/><path d="m1 11.5h11.2381v-1.4167-7.0833h2.8095v7.0833 1.4167h11.2381v2.8333h-11.2381v1.4167 7.0833h-2.8095v-7.0833-1.4167h-11.2381z" fill="#ff2e3b"/><path d="m43.1428 39.8333-1.9867.5868.5819-2.0035-.5819-2.0034 1.9867.5868 1.9866-.5868-.5819 2.0034.5819 2.0035z" fill="#ca1931"/><path d="m43.1428 12.9166-1.9867.5868.5819-2.0034-.5819-2.00351 1.9867.58681 1.9866-.58681-.5819 2.00351.5819 2.0034z" fill="#ca1931"/><path d="m51.5715 21.4167-1.9866.5868.5818-2.0035-.5818-2.0034 1.9866.5868 1.9866-.5868-.5819 2.0034.5819 2.0035z" fill="#ca1931"/><path d="m34.7143 24.25-1.9866.5868.5818-2.0035-.5818-2.0034 1.9866.5868 1.9866-.5868-.5818 2.0034.5818 2.0035z" fill="#ca1931"/></g></g></svg>

<svg width="61" height="53" viewBox="0 0 61 53" fill="none" xmlns="http://www.w3.org/2000/svg">
<rect x="1" y="3" width="59" height="42.5" rx="4.24286" fill="white"/>
<mask id="mask0" mask-type="alpha" maskUnits="userSpaceOnUse" x="1" y="3" width="59" height="43">
<rect x="1" y="3" width="59" height="42.5" rx="4.24286" fill="white"/>
</mask>
<g mask="url(#mask0)">
<rect x="1" y="3" width="59" height="42.5" fill="#0A17A7"/>
<path d="M1 2.29286H-0.899402L0.537561 3.53498L10.1262 11.8235V13.9712L0.586685 20.8429L0.292857 21.0545V21.4167V22.8333V24.1149L1.37706 23.4316L12.4424 16.4571H14.8194L24.3454 23.3191C24.5452 23.463 24.7853 23.5405 25.0316 23.5405C26.1192 23.5405 26.6222 22.1894 25.7994 21.4782L17.1595 14.0099V11.8621L26.4052 5.2021C26.7742 4.93631 26.9929 4.5093 26.9929 4.05454V3V1.7184L25.9087 2.40177L14.8434 9.37619H12.4663L2.81808 2.42622L2.63294 2.29286H2.40476H1Z" fill="#FF2E3B" stroke="white" stroke-width="1.41429"/>
<path fill-rule="evenodd" clip-rule="evenodd" d="M1 10.0833V15.75H10.8333V22.8357C10.8333 23.6168 11.4665 24.25 12.2476 24.25H15.0381C15.8192 24.25 16.4524 23.6168 16.4524 22.8357V15.75H26.2762C27.0573 15.75 27.6905 15.1168 27.6905 14.3357V11.4976C27.6905 10.7165 27.0573 10.0833 26.2762 10.0833H16.4524V3H10.8333V10.0833H1Z" fill="white"/>
<path fill-rule="evenodd" clip-rule="evenodd" d="M1 11.5H12.2381V10.0833V3H15.0476V10.0833V11.5H26.2857V14.3333H15.0476V15.75V22.8333H12.2381V15.75V14.3333H1V11.5Z" fill="#FF2E3B"/>
<path fill-rule="evenodd" clip-rule="evenodd" d="M43.1428 39.8333L41.1561 40.4201L41.738 38.4166L41.1561 36.4132L43.1428 37L45.1294 36.4132L44.5475 38.4166L45.1294 40.4201L43.1428 39.8333Z" fill="#CA1931"/>
<path fill-rule="evenodd" clip-rule="evenodd" d="M43.1428 12.9166L41.1561 13.5034L41.738 11.5L41.1561 9.49649L43.1428 10.0833L45.1294 9.49649L44.5475 11.5L45.1294 13.5034L43.1428 12.9166Z" fill="#CA1931"/>
<path fill-rule="evenodd" clip-rule="evenodd" d="M51.5715 21.4167L49.5849 22.0035L50.1667 20L49.5849 17.9966L51.5715 18.5834L53.5581 17.9966L52.9762 20L53.5581 22.0035L51.5715 21.4167Z" fill="#CA1931"/>
<path fill-rule="evenodd" clip-rule="evenodd" d="M34.7143 24.25L32.7277 24.8368L33.3095 22.8333L32.7277 20.8299L34.7143 21.4167L36.7009 20.8299L36.1191 22.8333L36.7009 24.8368L34.7143 24.25Z" fill="#CA1931"/>
</g>
</svg>
